icons/tokens/0x3Ed3B47Dd13EC9a98b44e6204A523E766B225811/logo.svg

<svg width="32" height="32" viewBox="0 0 32 32" fill="none" xmlns="http://www.w3.org/2000/svg">
<path fill-rule="evenodd" clip-rule="evenodd" d="M30.7821 9.87712C31.5834 11.8118 32 13.9059 32 16C32 18.0941 31.5834 20.1882 30.7821 22.1229C29.9808 24.0576 28.7946 25.833 27.3136 27.3136C25.833 28.7946 24.0576 29.9808 22.1229 30.7821C20.1882 31.5834 18.0941 32 16 32C13.9059 32 11.8118 31.5834 9.87712 30.7821C7.9424 29.9808 6.16704 28.7946 4.6864 27.3136C3.20544 25.833 2.0192 24.0576 1.21792 22.1229C0.41664 20.1882 0 18.0941 0 16C0 13.9059 0.41664 11.8118 1.21792 9.87712C2.0192 7.9424 3.20544 6.16704 4.6864 4.6864C6.16704 3.20544 7.9424 2.0192 9.87712 1.21792C11.8118 0.41664 13.9059 0 16 0C18.0941 0 20.1882 0.41664 22.1229 1.21792C24.0576 2.0192 25.833 3.20544 27.3136 4.6864C28.7946 6.16704 29.9808 7.9424 30.7821 9.87712ZM28.9344 10.6424C29.6354 12.3354 30 14.1676 30 16C30 17.8324 29.6354 19.6646 28.9344 21.3576C28.2332 23.0504 27.195 24.6038 25.8996 25.8996C24.6038 27.195 23.0504 28.2332 21.3576 28.9344C19.6646 29.6354 17.8324 30 16 30C14.1676 30 12.3354 29.6354 10.6424 28.9344C8.9496 28.2332 7.39622 27.195 6.10044 25.8996C4.80498 24.6038 3.7668 23.0504 3.06556 21.3576C2.36462 19.6646 2 17.8324 2 16C2 14.1676 2.36462 12.3354 3.06556 10.6424C3.7668 8.9496 4.80498 7.39622 6.10044 6.10044C7.39622 4.80498 8.9496 3.7668 10.6424 3.06556C12.3354 2.36462 14.1676 2 16 2C17.8324 2 19.6646 2.36462 21.3576 3.06556C23.0504 3.7668 24.6038 4.80498 25.8996 6.10044C27.195 7.39622 28.2332 8.9496 28.9344 10.6424Z" fill="url(#paint0_linear)"/>
<path fill-rule="evenodd" clip-rule="evenodd" d="M29 16C29 14.2986 28.6615 12.5971 28.0104 11.0252C27.3594 9.4532 26.3956 8.01072 25.1923 6.8077C23.9893 5.60442 22.5468 4.6406 20.9748 3.98956C19.4029 3.33852 17.7014 3 16 3C14.2986 3 12.5971 3.33852 11.0252 3.98956C9.4532 4.6406 8.01072 5.60442 6.8077 6.8077C5.60442 8.01072 4.6406 9.4532 3.98956 11.0252C3.33852 12.5971 3 14.2986 3 16C3 17.7014 3.33852 19.4029 3.98956 20.9748C4.6406 22.5468 5.60442 23.9893 6.8077 25.1923C8.01072 26.3956 9.4532 27.3594 11.0252 28.0104C12.5971 28.6615 14.2986 29 16 29C17.7014 29 19.4029 28.6615 20.9748 28.0104C22.5468 27.3594 23.9893 26.3956 25.1923 25.1923C26.3956 23.9893 27.3594 22.5468 28.0104 20.9748C28.6615 19.4029 29 17.7014 29 16Z" fill="#54AE94"/>
<path fill-rule="evenodd" clip-rule="evenodd" d="M10.3285 9.5H16.325H22.3215V12.3991H17.9172V14.0333L17.9307 14.0338C19.7324 14.1159 21.3111 14.3321 22.4593 14.6403C23.0336 14.7943 23.5 14.9693 23.8444 15.1778C24.0165 15.2819 24.1597 15.3945 24.2682 15.5288C24.3767 15.6633 24.45 15.8278 24.45 16.0036C24.45 16.1793 24.3767 16.3438 24.2682 16.4783C24.1597 16.6127 24.0165 16.7252 23.8444 16.8293C23.5 17.0378 23.0336 17.2128 22.4595 17.3668C21.3111 17.675 19.7324 17.8912 17.9307 17.9733L17.9183 17.9738V23.8H16.325H14.7318V17.9738L14.7193 17.9733C12.9176 17.8912 11.3389 17.675 10.1905 17.3668C9.61641 17.2128 9.15006 17.0378 8.80567 16.8293C8.63348 16.7252 8.49028 16.6127 8.38179 16.4783C8.27329 16.3438 8.20001 16.1793 8.20001 16.0036C8.20001 15.8278 8.27329 15.6633 8.38179 15.5288C8.49028 15.3945 8.63348 15.2819 8.80567 15.1778C9.15006 14.9693 9.61641 14.7943 10.1907 14.6403C11.3389 14.3321 12.9176 14.1159 14.7193 14.0338L14.7328 14.0333V12.3991H10.3285V9.5ZM14.738 17.0365L16.325 17.0716L17.9121 17.0365C19.4825 16.9675 20.8539 16.7966 21.822 16.5656C22.3063 16.45 22.6903 16.3182 22.9404 16.1844C23.0657 16.1177 23.1566 16.0499 23.21 15.9915C23.2633 15.933 23.2781 15.8907 23.2781 15.8547C23.2781 15.8186 23.2633 15.7764 23.21 15.7178C23.1566 15.6595 23.0657 15.5917 22.9407 15.5249C22.6905 15.3911 22.3065 15.2594 21.8226 15.1438C20.8557 14.9133 19.4869 14.7427 17.9188 14.6733V16.3052L17.8875 16.308C17.8468 16.3116 17.7026 16.3238 17.4426 16.3348C17.3126 16.3402 17.1536 16.3456 16.9646 16.3494C16.8701 16.3512 16.7681 16.3527 16.658 16.3538C16.6031 16.3543 16.5464 16.3548 16.4874 16.355H16.325H16.1627C16.1036 16.3548 16.0469 16.3543 15.992 16.3538C15.882 16.3527 15.7799 16.3512 15.6854 16.3494C15.4964 16.3456 15.3374 16.3402 15.2074 16.3348C14.9475 16.3238 14.8032 16.3116 14.7626 16.308L14.7312 16.3052V14.6733C13.1631 14.7427 11.7943 14.9133 10.8275 15.1438C10.3435 15.2594 9.95951 15.3911 9.70937 15.5249C9.5843 15.5917 9.49341 15.6595 9.44007 15.7178C9.38673 15.7764 9.37197 15.8186 9.37197 15.8547C9.37197 15.8907 9.38673 15.933 9.44007 15.9915C9.49341 16.0499 9.5843 16.1177 9.70963 16.1844C9.95976 16.3182 10.3438 16.45 10.828 16.5656C11.7962 16.7966 13.1675 16.9675 14.738 17.0365Z" fill="white"/>
<defs>
<linearGradient id="paint0_linear" x1="19.008" y1="-4.64" x2="-4.8" y2="15.392" gradientUnits="userSpaceOnUse">
<stop stop-color="#B6509E"/>
<stop offset="1" stop-color="#2EBAC6"/>
</linearGradient>
</defs>
</svg>

<svg width="32" height="32" fill="none" xmlns="http://www.w3.org/2000/svg"><path fill-rule="evenodd" clip-rule="evenodd" d="M30.782 9.877A16.054 16.054 0 0132 16c0 2.094-.417 4.188-1.218 6.123a16.046 16.046 0 01-3.468 5.19 16.046 16.046 0 01-5.191 3.47A16.054 16.054 0 0116 32c-2.094 0-4.188-.417-6.123-1.218a16.046 16.046 0 01-5.19-3.468 16.046 16.046 0 01-3.47-5.191A16.055 16.055 0 010 16c0-2.094.417-4.188 1.218-6.123a16.047 16.047 0 013.468-5.19 16.047 16.047 0 015.191-3.47A16.054 16.054 0 0116 0c2.094 0 4.188.417 6.123 1.218a16.046 16.046 0 015.19 3.468 16.046 16.046 0 013.47 5.191zm-1.848.765A14.05 14.05 0 0130 16a14.05 14.05 0 01-1.066 5.358A14.053 14.053 0 0125.9 25.9a14.053 14.053 0 01-4.542 3.034A14.05 14.05 0 0116 30a14.05 14.05 0 01-5.358-1.066A14.052 14.052 0 016.1 25.9a14.053 14.053 0 01-3.034-4.542A14.052 14.052 0 012 16c0-1.832.365-3.665 1.066-5.358A14.052 14.052 0 016.1 6.1a14.052 14.052 0 014.542-3.034A14.052 14.052 0 0116 2c1.832 0 3.665.365 5.358 1.066A14.053 14.053 0 0125.9 6.1a14.052 14.052 0 013.034 4.542z" fill="url(#paint0_linear)"/><path fill-rule="evenodd" clip-rule="evenodd" d="M29 16c0-1.701-.338-3.403-.99-4.975a13.037 13.037 0 00-2.818-4.217 13.037 13.037 0 00-4.217-2.818A13.044 13.044 0 0016 3c-1.701 0-3.403.339-4.975.99a13.038 13.038 0 00-4.217 2.818 13.038 13.038 0 00-2.818 4.217A13.044 13.044 0 003 16c0 1.701.339 3.403.99 4.975a13.037 13.037 0 002.818 4.217 13.037 13.037 0 004.217 2.818c1.572.651 3.274.99 4.975.99 1.701 0 3.403-.338 4.975-.99a13.036 13.036 0 004.217-2.818 13.036 13.036 0 002.818-4.217C28.661 19.403 29 17.7 29 16z" fill="#54AE94"/><path fill-rule="evenodd" clip-rule="evenodd" d="M10.329 9.5h11.993v2.9h-4.405v1.633h.014c1.801.083 3.38.3 4.528.607.575.154 1.041.33 1.385.538.172.104.316.216.424.35a.764.764 0 01.182.476c0 .175-.073.34-.182.474a1.589 1.589 0 01-.424.351c-.344.209-.81.384-1.385.538-1.148.308-2.727.524-4.528.606h-.013V23.8h-3.186v-5.826h-.013c-1.801-.083-3.38-.299-4.528-.607-.575-.154-1.04-.33-1.385-.538a1.588 1.588 0 01-.424-.35.764.764 0 01-.182-.475c0-.176.073-.34.182-.475a1.59 1.59 0 01.424-.351c.344-.209.81-.384 1.385-.538 1.148-.308 2.727-.524 4.528-.606h.014v-1.635h-4.405V9.5zm4.409 7.537l1.587.035 1.587-.035c1.57-.07 2.942-.24 3.91-.471.484-.116.868-.248 1.118-.382a1.03 1.03 0 00.27-.193c.053-.058.068-.1.068-.136 0-.036-.015-.079-.068-.137a1.037 1.037 0 00-.27-.193c-.25-.134-.634-.266-1.117-.381-.967-.23-2.336-.401-3.904-.47v1.631l-.032.003c-.04.004-.184.016-.444.027a22.227 22.227 0 01-.956.02h-.324a29.467 29.467 0 01-.956-.02 9.853 9.853 0 01-.444-.027l-.032-.003v-1.632c-1.568.07-2.937.24-3.903.47-.484.116-.868.248-1.119.382a1.035 1.035 0 00-.269.193c-.053.058-.068.1-.068.137 0 .036.015.078.068.136.053.059.144.127.27.193.25.134.634.266 1.118.382.968.23 2.34.402 3.91.47z" fill="#fff"/><defs><linearGradient id="paint0_linear" x1="19.008" y1="-4.64" x2="-4.8" y2="15.392" gradientUnits="userSpaceOnUse"><stop stop-color="#B6509E"/><stop offset="1" stop-color="#2EBAC6"/></linearGradient></defs></svg>
